X: 58
T: Wuge fangyang
%%abc-version 2.0
%%abcx-abcm2ps-target-version 5.9.1 (29 Sep 2008)
%%abc-creator hum2abc beta
%%abcx-conversion-date 2013/10/02 07:52:29
%%abc-edited-by Helmut Schaffrath
%%humdrum-veritas 571797755
%%humdrum-veritas-data 72666462
%%continueall 1
%%barnumbers 0
L: 1/16
M: 2/4
K: F
c2 c c c2 f2 [I:setbarnb 1]| 
c4G F E2 | 
F4c2 d c | 
B2 c2 G F E2 | 
C4c z d c | 
B z c2 G2 G F | 
E4G z G B | 
c4E4 | 
D C F2C4 |]  



